X: 1844
T: Argosy, The
R: reel
M: 4/4
K: Edorian
|:Beed edBA|FADA FAdA|Beed edBA|DEFA FE~E2|
Beed edBA|FAde fdef|~g3f edBA|FADE FE~E2:|
|:e2ge Aece|defg adfd|e2ge BeGe|Addc defd|
e2ge Aece|defg adfa|gBeg fedB|ABde fafd:|

